;Generated with Cura_SteamEngine 15.01
; Default start code
G28 ; Home extruder
G1 Z15 F100
M107 ; Turn off fan
G90 ; Absolute positioning
M82 ; Extruder in absolute mode
M190 S50
; Activate all used extruder
M104 T0 S210
G92 E0 ; Reset extruder position
; Wait for all used extruders to reach temperature
M109 T0 S210
;Layer count: 60
;LAYER:-2
;RAFT
G0 F9000 X87.500 Y87.500 Z0.300
;TYPE:SUPPORT
G1 F1800 X99.800 Y87.500 E1.07389
G1 X99.800 Y87.100 E1.10881
G1 X111.700 Y87.100 E2.14777
G1 X111.700 Y101.100 E3.37008
G1 X101.100 Y101.100 E4.29555
G1 X101.100 Y111.700 E5.22101
G1 X87.000 Y111.700 E6.45205
G1 X87.000 Y99.700 E7.49974
G1 X87.500 Y99.700 E7.54340
G1 X87.500 Y87.500 E8.60855
G0 F9000 X87.500 Y87.395
G1 F1800 X87.500 Y111.805 E10.73974
G0 F9000 X88.500 Y111.805
G1 F1800 X88.500 Y87.395 E12.87092
G0 F9000 X89.500 Y87.395
G1 F1800 X89.500 Y111.805 E15.00211
G0 F9000 X90.500 Y111.805
G1 F1800 X90.500 Y87.395 E17.13329
G0 F9000 X91.500 Y87.395
G1 F1800 X91.500 Y111.805 E19.26448
G0 F9000 X92.500 Y111.805
G1 F1800 X92.500 Y87.395 E21.39566
G0 F9000 X93.500 Y87.395
G1 F1800 X93.500 Y111.805 E23.52685
G0 F9000 X94.500 Y111.805
G1 F1800 X94.500 Y87.395 E25.65803
G0 F9000 X95.500 Y87.395
G1 F1800 X95.500 Y111.805 E27.78922
G0 F9000 X96.500 Y111.805
G1 F1800 X96.500 Y87.395 E29.92040
G0 F9000 X97.500 Y87.395
G1 F1800 X97.500 Y111.805 E32.05159
G0 F9000 X98.500 Y111.805
G1 F1800 X98.500 Y87.395 E34.18277
G0 F9000 X99.500 Y87.395
G1 F1800 X99.500 Y111.805 E36.31396
G0 F9000 X100.500 Y111.805
G1 F1800 X100.500 Y86.995 E38.48006
G0 F9000 X101.500 Y86.995
G1 F1800 X101.500 Y101.205 E39.72071
G0 F9000 X102.500 Y101.205
G1 F1800 X102.500 Y86.995 E40.96135
G0 F9000 X103.500 Y86.995
G1 F1800 X103.500 Y101.205 E42.20200
G0 F9000 X104.500 Y101.205
G1 F1800 X104.500 Y86.995 E43.44264
G0 F9000 X105.500 Y86.995
G1 F1800 X105.500 Y101.205 E44.68329
G0 F9000 X106.500 Y101.205
G1 F1800 X106.500 Y86.995 E45.92393
G0 F9000 X107.500 Y86.995
G1 F1800 X107.500 Y101.205 E47.16458
G0 F9000 X108.500 Y101.205
G1 F1800 X108.500 Y86.995 E48.40522
G0 F9000 X109.500 Y86.995
G1 F1800 X109.500 Y101.205 E49.64587
G0 F9000 X110.500 Y101.205
G1 F1800 X110.500 Y86.995 E50.88651
G0 F9000 X111.500 Y86.995
G1 F1800 X111.500 Y101.205 E52.12715
M106 S255
;LAYER:-1
;RAFT
G0 F9000 X111.594 Y101.129 Z0.500
;TYPE:SUPPORT
G1 F1800 X97.934 Y87.469 E52.44842
G0 F9000 X97.369 Y87.469
G1 F1800 X111.029 Y101.129 E52.76968
G0 F9000 X110.463 Y101.129
G1 F1800 X96.803 Y87.469 E53.09094
G0 F9000 X96.237 Y87.469
G1 F1800 X109.897 Y101.129 E53.41220
G0 F9000 X109.332 Y101.129
G1 F1800 X95.672 Y87.469 E53.73347
G0 F9000 X95.106 Y87.469
G1 F1800 X108.766 Y101.129 E54.05473
G0 F9000 X108.200 Y101.129
G1 F1800 X94.540 Y87.469 E54.37599
G0 F9000 X93.975 Y87.469
G1 F1800 X107.635 Y101.129 E54.69725
G0 F9000 X107.069 Y101.129
G1 F1800 X93.409 Y87.469 E55.01851
G0 F9000 X92.843 Y87.469
G1 F1800 X106.503 Y101.129 E55.33978
G0 F9000 X105.938 Y101.129
G1 F1800 X92.278 Y87.469 E55.66104
G0 F9000 X91.712 Y87.469
G1 F1800 X105.372 Y101.129 E55.98230
G0 F9000 X104.806 Y101.129
G1 F1800 X91.146 Y87.469 E56.30356
G0 F9000 X90.581 Y87.469
G1 F1800 X104.240 Y101.129 E56.62481
G0 F9000 X103.675 Y101.129
G1 F1800 X90.015 Y87.469 E56.94608
G0 F9000 X89.449 Y87.469
G1 F1800 X103.109 Y101.129 E57.26734
G0 F9000 X102.543 Y101.129
G1 F1800 X88.884 Y87.469 E57.58859
G0 F9000 X88.318 Y87.469
G1 F1800 X101.978 Y101.129 E57.90985
G0 F9000 X101.412 Y101.129
G1 F1800 X87.752 Y87.469 E58.23111
G0 F9000 X87.469 Y87.752
G1 F1800 X101.129 Y101.412 E58.55238
G0 F9000 X101.129 Y101.978
G1 F1800 X87.469 Y88.318 E58.87364
G0 F9000 X87.469 Y88.884
G1 F1800 X101.129 Y102.543 E59.19489
G0 F9000 X101.129 Y103.109
G1 F1800 X87.469 Y89.449 E59.51615
G0 F9000 X87.469 Y90.015
G1 F1800 X101.129 Y103.675 E59.83741
G0 F9000 X101.129 Y104.240
G1 F1800 X87.469 Y90.581 E60.15866
G0 F9000 X87.469 Y91.146
G1 F1800 X101.129 Y104.806 E60.47993
G0 F9000 X101.129 Y105.372
G1 F1800 X87.469 Y91.712 E60.80119
G0 F9000 X87.469 Y92.278
G1 F1800 X101.129 Y105.938 E61.12245
G0 F9000 X101.129 Y106.503
G1 F1800 X87.469 Y92.843 E61.44371
G0 F9000 X87.469 Y93.409
G1 F1800 X101.129 Y107.069 E61.76498
G0 F9000 X101.129 Y107.635
G1 F1800 X87.469 Y93.975 E62.08624
G0 F9000 X87.469 Y94.540
G1 F1800 X101.129 Y108.200 E62.40750
G0 F9000 X101.129 Y108.766
G1 F1800 X87.469 Y95.106 E62.72876
G0 F9000 X87.469 Y95.672
G1 F1800 X101.129 Y109.332 E63.05002
G0 F9000 X101.129 Y109.897
G1 F1800 X87.469 Y96.237 E63.37129
G0 F9000 X87.469 Y96.803
G1 F1800 X101.129 Y110.463 E63.69255
G0 F9000 X101.129 Y111.029
G1 F1800 X87.469 Y97.369 E64.01381
G0 F9000 X87.469 Y97.934
G1 F1800 X101.129 Y111.594 E64.33507
G0 F9000 X100.698 Y111.729
G1 F1800 X87.469 Y98.500 E64.64620
G0 F9000 X87.469 Y99.066
G1 F1800 X100.132 Y111.729 E64.94401
G0 F9000 X111.729 Y100.698
G1 F1800 X98.500 Y87.469 E65.25514
G0 F9000 X99.066 Y87.469
G1 F1800 X111.729 Y100.132 E65.55295
G0 F9000 X111.729 Y99.566
G1 F1800 X99.632 Y87.469 E65.83746
G0 F9000 X99.797 Y87.069
G1 F1800 X111.729 Y99.001 E66.11808
G0 F9000 X111.729 Y98.435
G1 F1800 X100.363 Y87.069 E66.38539
G0 F9000 X100.928 Y87.069
G1 F1800 X111.729 Y97.869 E66.63940
G0 F9000 X111.729 Y97.304
G1 F1800 X101.494 Y87.069 E66.88011
G0 F9000 X102.060 Y87.069
G1 F1800 X111.729 Y96.738 E67.10751
G0 F9000 X111.729 Y96.172
G1 F1800 X102.625 Y87.069 E67.32161
G0 F9000 X103.191 Y87.069
G1 F1800 X111.729 Y95.607 E67.52241
G0 F9000 X111.729 Y95.041
G1 F1800 X103.757 Y87.069 E67.70990
G0 F9000 X104.322 Y87.069
G1 F1800 X111.729 Y94.475 E67.88409
G0 F9000 X111.729 Y93.910
G1 F1800 X104.888 Y87.069 E68.04498
G0 F9000 X105.454 Y87.069
G1 F1800 X111.729 Y93.344 E68.19256
G0 F9000 X111.729 Y92.778
G1 F1800 X106.020 Y87.069 E68.32683
G0 F9000 X106.585 Y87.069
G1 F1800 X111.729 Y92.213 E68.44781
G0 F9000 X111.729 Y91.647
G1 F1800 X107.151 Y87.069 E68.55547
G0 F9000 X107.717 Y87.069
G1 F1800 X111.729 Y91.081 E68.64983
G0 F9000 X111.729 Y90.516
G1 F1800 X108.282 Y87.069 E68.73090
G0 F9000 X108.848 Y87.069
G1 F1800 X111.729 Y89.950 E68.79865
G0 F9000 X111.729 Y89.384
G1 F1800 X109.414 Y87.069 E68.85310
G0 F9000 X109.979 Y87.069
G1 F1800 X111.729 Y88.818 E68.89425
G0 F9000 X111.729 Y88.253
G1 F1800 X110.545 Y87.069 E68.92209
G0 F9000 X111.111 Y87.069
G1 F1800 X111.729 Y87.687 E68.93663
G0 F9000 X111.729 Y87.121
G1 F1800 X111.676 Y87.069 E68.93786
G0 F9000 X87.469 Y99.632
G1 F1800 X99.566 Y111.729 E69.22236
G0 F9000 X99.001 Y111.729
G1 F1800 X86.969 Y99.697 E69.50534
G0 F9000 X86.969 Y100.263
G1 F1800 X98.435 Y111.729 E69.77500
G0 F9000 X97.869 Y111.729
G1 F1800 X86.969 Y100.829 E70.03135
G0 F9000 X86.969 Y101.394
G1 F1800 X97.304 Y111.729 E70.27442
G0 F9000 X96.738 Y111.729
G1 F1800 X86.969 Y101.960 E70.50417
G0 F9000 X86.969 Y102.526
G1 F1800 X96.172 Y111.729 E70.72061
G0 F9000 X95.607 Y111.729
G1 F1800 X86.969 Y103.091 E70.92376
G0 F9000 X86.969 Y103.657
G1 F1800 X95.041 Y111.729 E71.11360
G0 F9000 X94.475 Y111.729
G1 F1800 X86.969 Y104.223 E71.29013
G0 F9000 X86.969 Y104.788
G1 F1800 X93.910 Y111.729 E71.45337
G0 F9000 X93.344 Y111.729
G1 F1800 X86.969 Y105.354 E71.60330
G0 F9000 X86.969 Y105.920
G1 F1800 X92.778 Y111.729 E71.73992
G0 F9000 X92.213 Y111.729
G1 F1800 X86.969 Y106.486 E71.86324
G0 F9000 X86.969 Y107.051
G1 F1800 X91.647 Y111.729 E71.97326
G0 F9000 X91.081 Y111.729
G1 F1800 X86.969 Y107.617 E72.06997
G0 F9000 X86.969 Y108.183
G1 F1800 X90.516 Y111.729 E72.15338
G0 F9000 X89.950 Y111.729
G1 F1800 X86.969 Y108.748 E72.22348
G0 F9000 X86.969 Y109.314
G1 F1800 X89.384 Y111.729 E72.28028
G0 F9000 X88.818 Y111.729
G1 F1800 X86.969 Y109.880 E72.32377
G0 F9000 X86.969 Y110.445
G1 F1800 X88.253 Y111.729 E72.35397
G0 F9000 X87.687 Y111.729
G1 F1800 X86.969 Y111.011 E72.37085
G0 F9000 X86.969 Y111.577
G1 F1800 X87.121 Y111.729 E72.37443
;LAYER:-1
;RAFT
G0 F9000 X86.939 Y111.420 Z0.700
;TYPE:SUPPORT
G1 F1800 X101.159 Y111.420 E72.84739
G0 F9000 X101.159 Y111.060
G1 F1800 X86.939 Y111.060 E73.32034
G0 F9000 X86.939 Y110.700
G1 F1800 X101.159 Y110.700 E73.79330
G0 F9000 X101.159 Y110.340
G1 F1800 X86.939 Y110.340 E74.26626
G0 F9000 X86.939 Y109.980
G1 F1800 X101.159 Y109.980 E74.73922
G0 F9000 X101.159 Y109.620
G1 F1800 X86.939 Y109.620 E75.21218
G0 F9000 X86.939 Y109.260
G1 F1800 X101.159 Y109.260 E75.68514
G0 F9000 X101.159 Y108.900
G1 F1800 X86.939 Y108.900 E76.15810
G0 F9000 X86.939 Y108.540
G1 F1800 X101.159 Y108.540 E76.63106
G0 F9000 X101.159 Y108.180
G1 F1800 X86.939 Y108.180 E77.10402
G0 F9000 X86.939 Y107.820
G1 F1800 X101.159 Y107.820 E77.57698
G0 F9000 X101.159 Y107.460
G1 F1800 X86.939 Y107.460 E78.04994
G0 F9000 X86.939 Y107.100
G1 F1800 X101.159 Y107.100 E78.52289
G0 F9000 X101.159 Y106.740
G1 F1800 X86.939 Y106.740 E78.99585
G0 F9000 X86.939 Y106.380
G1 F1800 X101.159 Y106.380 E79.46881
G0 F9000 X101.159 Y106.020
G1 F1800 X86.939 Y106.020 E79.94177
G0 F9000 X86.939 Y105.660
G1 F1800 X101.159 Y105.660 E80.41473
G0 F9000 X101.159 Y105.300
G1 F1800 X86.939 Y105.300 E80.88769
G0 F9000 X86.939 Y104.940
G1 F1800 X101.159 Y104.940 E81.36065
G0 F9000 X101.159 Y104.580
G1 F1800 X86.939 Y104.580 E81.83361
G0 F9000 X86.939 Y104.220
G1 F1800 X101.159 Y104.220 E82.30657
G0 F9000 X101.159 Y103.860
G1 F1800 X86.939 Y103.860 E82.77953
G0 F9000 X86.939 Y103.500
G1 F1800 X101.159 Y103.500 E83.25249
G0 F9000 X101.159 Y103.140
G1 F1800 X86.939 Y103.140 E83.72545
G0 F9000 X86.939 Y102.780
G1 F1800 X101.159 Y102.780 E84.19840
G0 F9000 X101.159 Y102.420
G1 F1800 X86.939 Y102.420 E84.67136
G0 F9000 X86.939 Y102.060
G1 F1800 X101.159 Y102.060 E85.14432
G0 F9000 X101.159 Y101.700
G1 F1800 X86.939 Y101.700 E85.61728
G0 F9000 X86.939 Y101.340
G1 F1800 X101.159 Y101.340 E86.09024
G0 F9000 X111.759 Y100.980
G1 F1800 X86.939 Y100.980 E86.91576
G0 F9000 X86.939 Y100.620
G1 F1800 X111.759 Y100.620 E87.74127
G0 F9000 X111.759 Y100.260
G1 F1800 X86.939 Y100.260 E88.56679
G0 F9000 X86.939 Y99.900
G1 F1800 X111.759 Y99.900 E89.39231
G0 F9000 X111.759 Y99.540
G1 F1800 X87.439 Y99.540 E90.20119
G0 F9000 X87.439 Y99.180
G1 F1800 X111.759 Y99.180 E91.01008
G0 F9000 X111.759 Y98.820
G1 F1800 X87.439 Y98.820 E91.81897
G0 F9000 X87.439 Y98.460
G1 F1800 X111.759 Y98.460 E92.62785
G0 F9000 X111.759 Y98.100
G1 F1800 X87.439 Y98.100 E93.43674
G0 F9000 X87.439 Y97.740
G1 F1800 X111.759 Y97.740 E94.24563
G0 F9000 X111.759 Y97.380
G1 F1800 X87.439 Y97.380 E95.05451
G0 F9000 X87.439 Y97.020
G1 F1800 X111.759 Y97.020 E95.86340
G0 F9000 X111.759 Y96.660
G1 F1800 X87.439 Y96.660 E96.67229
G0 F9000 X87.439 Y96.300
G1 F1800 X111.759 Y96.300 E97.48117
G0 F9000 X111.759 Y95.940
G1 F1800 X87.439 Y95.940 E98.29006
G0 F9000 X87.439 Y95.580
G1 F1800 X111.759 Y95.580 E99.09894
G0 F9000 X111.759 Y95.220
G1 F1800 X87.439 Y95.220 E99.90783
G0 F9000 X87.439 Y94.860
G1 F1800 X111.759 Y94.860 E100.71672
G0 F9000 X111.759 Y94.500
G1 F1800 X87.439 Y94.500 E101.52560
G0 F9000 X87.439 Y94.140
G1 F1800 X111.759 Y94.140 E102.33449
G0 F9000 X111.759 Y93.780
G1 F1800 X87.439 Y93.780 E103.14338
G0 F9000 X87.439 Y93.420
G1 F1800 X111.759 Y93.420 E103.95226
G0 F9000 X111.759 Y93.060
G1 F1800 X87.439 Y93.060 E104.76115
G0 F9000 X87.439 Y92.700
G1 F1800 X111.759 Y92.700 E105.57004
G0 F9000 X111.759 Y92.340
G1 F1800 X87.439 Y92.340 E106.37892
G0 F9000 X87.439 Y91.980
G1 F1800 X111.759 Y91.980 E107.18781
G0 F9000 X111.759 Y91.620
G1 F1800 X87.439 Y91.620 E107.99670
G0 F9000 X87.439 Y91.260
G1 F1800 X111.759 Y91.260 E108.80558
G0 F9000 X111.759 Y90.900
G1 F1800 X87.439 Y90.900 E109.61447
G0 F9000 X87.439 Y90.540
G1 F1800 X111.759 Y90.540 E110.42336
G0 F9000 X111.759 Y90.180
G1 F1800 X87.439 Y90.180 E111.23224
G0 F9000 X87.439 Y89.820
G1 F1800 X111.759 Y89.820 E112.04113
G0 F9000 X111.759 Y89.460
G1 F1800 X87.439 Y89.460 E112.85002
G0 F9000 X87.439 Y89.100
G1 F1800 X111.759 Y89.100 E113.65890
G0 F9000 X111.759 Y88.740
G1 F1800 X87.439 Y88.740 E114.46779
G0 F9000 X87.439 Y88.380
G1 F1800 X111.759 Y88.380 E115.27667
G0 F9000 X111.759 Y88.020
G1 F1800 X87.439 Y88.020 E116.08556
G0 F9000 X87.439 Y87.660
G1 F1800 X111.759 Y87.660 E116.89445
G0 F9000 X111.759 Y87.300
G1 F1800 X99.739 Y87.300 E117.29423
;LAYER:0
M107
G1 F2400 E113.29423
G0 F9000 X98.551 Y94.900 Z1.000
;TYPE:WALL-INNER
G1 F2400 E117.29423
G1 F1800 X94.900 Y98.551 E117.55183
G1 X94.900 Y104.977 E117.87243
G1 X93.100 Y104.976 E117.96223
G1 X93.100 Y93.100 E118.55472
G1 X104.976 Y93.100 E119.14722
G1 X104.976 Y94.900 E119.23702
G1 X98.551 Y94.900 E119.55757
G0 F9000 X98.717 Y95.300
;TYPE:WALL-OUTER
G1 F1800 X95.300 Y98.717 E119.79866
G1 X95.300 Y105.376 E120.13087
G1 X92.700 Y105.376 E120.26059
G1 X92.700 Y92.700 E120.89300
G1 X105.376 Y92.700 E121.52541
G1 X105.377 Y95.300 E121.65512
G1 X98.717 Y95.300 E121.98739
G0 F9000 X98.463 Y94.786
;TYPE:SKIN
G1 F1800 X96.916 Y93.239 E122.09654
G0 F9000 X96.351 Y93.239
G1 F1800 X98.181 Y95.069 E122.22565
G0 F9000 X97.898 Y95.352
G1 F1800 X95.785 Y93.239 E122.37474
G0 F9000 X95.219 Y93.239
G1 F1800 X97.615 Y95.635 E122.54379
G0 F9000 X97.332 Y95.918
G1 F1800 X94.654 Y93.239 E122.73277
G0 F9000 X94.088 Y93.239
G1 F1800 X97.049 Y96.201 E122.94172
G0 F9000 X96.766 Y96.484
G1 F1800 X93.522 Y93.239 E123.17064
G0 F9000 X93.239 Y93.522
G1 F1800 X96.484 Y96.766 E123.39956
G0 F9000 X96.201 Y97.049
G1 F1800 X93.239 Y94.088 E123.60850
G0 F9000 X93.239 Y94.654
G1 F1800 X95.918 Y97.332 E123.79749
G0 F9000 X95.635 Y97.615
G1 F1800 X93.239 Y95.219 E123.96654
G0 F9000 X93.239 Y95.785
G1 F1800 X95.352 Y97.898 E124.11562
G0 F9000 X95.069 Y98.181
G1 F1800 X93.239 Y96.351 E124.24474
G0 F9000 X93.239 Y96.916
G1 F1800 X94.786 Y98.463 E124.35389
G0 F9000 X94.760 Y99.002
G1 F1800 X93.239 Y97.482 E124.46117
G0 F9000 X93.239 Y98.048
G1 F1800 X94.760 Y99.568 E124.56845
G0 F9000 X94.760 Y100.134
G1 F1800 X93.239 Y98.613 E124.67576
G0 F9000 X93.239 Y99.179
G1 F1800 X94.760 Y100.699 E124.78304
G0 F9000 X94.760 Y101.265
G1 F1800 X93.239 Y99.745 E124.89032
G0 F9000 X99.002 Y94.760
G1 F1800 X97.482 Y93.239 E124.99760
G0 F9000 X98.048 Y93.239
G1 F1800 X99.568 Y94.760 E125.10488
G0 F9000 X100.134 Y94.760
G1 F1800 X98.613 Y93.239 E125.21219
G0 F9000 X99.179 Y93.239
G1 F1800 X100.699 Y94.760 E125.31947
G0 F9000 X101.265 Y94.760
G1 F1800 X99.745 Y93.239 E125.42675
G0 F9000 X100.310 Y93.239
G1 F1800 X101.831 Y94.760 E125.53407
G0 F9000 X102.396 Y94.760
G1 F1800 X100.876 Y93.239 E125.64135
G0 F9000 X101.442 Y93.239
G1 F1800 X102.962 Y94.760 E125.74863
G0 F9000 X103.528 Y94.760
G1 F1800 X102.007 Y93.239 E125.85594
G0 F9000 X102.573 Y93.239
G1 F1800 X104.093 Y94.760 E125.96322
G0 F9000 X104.659 Y94.760
G1 F1800 X103.139 Y93.239 E126.07050
G0 F9000 X103.704 Y93.239
G1 F1800 X104.834 Y94.369 E126.15023
G0 F9000 X104.834 Y93.804
G1 F1800 X104.270 Y93.239 E126.19006
G0 F9000 X98.558 Y94.916
G0 X94.916 Y98.558
G0 X94.760 Y101.831
G1 F1800 X93.239 Y100.310 E126.29737
G0 F9000 X93.239 Y100.876
G1 F1800 X94.760 Y102.396 E126.40465
G0 F9000 X94.760 Y102.962
G1 F1800 X93.239 Y101.442 E126.51193
G0 F9000 X93.239 Y102.007
G1 F1800 X94.760 Y103.528 E126.61925
G0 F9000 X94.760 Y104.093
G1 F1800 X93.239 Y102.573 E126.72652
G0 F9000 X93.239 Y103.139
G1 F1800 X94.760 Y104.659 E126.83380
G0 F9000 X94.370 Y104.835
G1 F1800 X93.239 Y103.704 E126.91360
G0 F9000 X93.239 Y104.270
G1 F1800 X93.804 Y104.834 E126.95343
;LAYER:1
M106 S63
G0 F9000 X93.100 Y105.393 Z1.200
;TYPE:WALL-INNER
G1 F2460 X93.100 Y93.100 E127.36230
G1 X105.393 Y93.100 E127.77116
G1 X105.394 Y94.900 E127.83103
G1 X98.551 Y94.900 E128.05863
G1 X94.900 Y98.551 E128.23036
G1 X94.900 Y105.393 E128.45793
G1 X93.100 Y105.393 E128.51780
G0 F9000 X92.700 Y105.793
;TYPE:WALL-OUTER
